assets/Speaking head/Flat/speaking_head_flat.svg

<svg width="32" height="32" viewBox="0 0 32 32" fill="none" xmlns="http://www.w3.org/2000/svg">
<path d="M24.7264 14.6206C25.1706 15.087 25.3854 15.3124 25.4499 15.85C25.4771 16.1039 25.4497 16.3607 25.3694 16.6032C25.2892 16.8456 25.158 17.0681 24.9846 17.2557C24.8113 17.4432 24.5998 17.5915 24.3644 17.6906C24.1291 17.7896 23.8752 17.8372 23.6199 17.83C23.6336 17.9779 23.6483 18.1243 23.6628 18.2693C23.7122 18.761 23.7599 19.2367 23.7599 19.7C23.7627 19.8505 23.7069 19.9962 23.6043 20.1063C23.5016 20.2164 23.3602 20.2822 23.2099 20.29L21.5299 20.35C21.474 20.3839 21.4278 20.4316 21.3958 20.4885C21.3637 20.5454 21.3468 20.6097 21.3468 20.675C21.3468 20.7403 21.3637 20.8046 21.3958 20.8615C21.4278 20.9184 21.474 20.9661 21.5299 21L23.1999 22.07C23.3362 22.1555 23.4423 22.2815 23.5032 22.4304C23.5642 22.5793 23.5771 22.7435 23.5399 22.9C22.9899 24.94 21.5299 26.34 18.2399 26.75C17.6061 26.8237 16.9677 26.8505 16.3299 26.83C16.0766 26.8224 15.8274 26.896 15.6188 27.0399C15.4101 27.1838 15.2529 27.3905 15.1699 27.63L14.4499 29.63H4.44992L6.62992 22.74C6.84732 22.0468 6.78265 21.2958 6.44992 20.65C5.25992 18.37 3.35992 14.43 3.05992 12C2.81076 10.0374 3.35136 8.05625 4.56282 6.49223C5.77428 4.92821 7.55738 3.90945 9.51992 3.66001L14.3299 3.06001C16.2888 2.82225 18.2621 3.36919 19.8191 4.58141C21.3761 5.79363 22.3901 7.57265 22.6399 9.53001L23.0199 12.53C23.7922 13.6399 24.3442 14.2194 24.7264 14.6206Z" fill="#533566"/>
<path d="M30.4699 22.1V20.16C30.4794 20.0936 30.4721 20.0259 30.4485 19.9631C30.425 19.9003 30.386 19.8444 30.3352 19.8006C30.2845 19.7568 30.2235 19.7264 30.1579 19.7123C30.0923 19.6983 30.0242 19.7009 29.9599 19.72L26.7199 20.72C26.6399 20.7463 26.5702 20.7972 26.5208 20.8655C26.4714 20.9337 26.4448 21.0158 26.4448 21.1C26.4448 21.1843 26.4714 21.2664 26.5208 21.3346C26.5702 21.4028 26.6399 21.4537 26.7199 21.48L29.9599 22.48C30.0191 22.497 30.0814 22.5 30.1419 22.4889C30.2024 22.4779 30.2596 22.453 30.3089 22.4162C30.3583 22.3794 30.3985 22.3318 30.4264 22.2769C30.4543 22.2221 30.4692 22.1616 30.4699 22.1Z" fill="#533566"/>
<path d="M27.7199 16L29.0899 17.37C29.1331 17.4139 29.1656 17.4672 29.1849 17.5257C29.2042 17.5842 29.2096 17.6464 29.2009 17.7073C29.1922 17.7683 29.1696 17.8264 29.1347 17.8772C29.0998 17.928 29.0537 17.97 28.9999 18L25.9999 19.6C25.9254 19.6373 25.8411 19.6504 25.7587 19.6375C25.6764 19.6245 25.6002 19.5862 25.5407 19.5278C25.4812 19.4694 25.4415 19.3939 25.427 19.3119C25.4125 19.2298 25.424 19.1452 25.4599 19.07L27.0599 16.07C27.0906 16.0121 27.135 15.9626 27.1893 15.9258C27.2436 15.8891 27.3061 15.8663 27.3713 15.8593C27.4365 15.8524 27.5024 15.8616 27.5631 15.8862C27.6239 15.9107 27.6778 15.9498 27.7199 16Z" fill="#533566"/>
<path d="M29.0899 24.91L27.7199 26.28C27.6778 26.3302 27.6239 26.3693 27.5631 26.3938C27.5024 26.4184 27.4365 26.4276 27.3713 26.4207C27.3061 26.4138 27.2436 26.3909 27.1893 26.3542C27.135 26.3174 27.0906 26.2679 27.0599 26.21L25.4599 23.21C25.424 23.1348 25.4125 23.0502 25.427 22.9682C25.4415 22.8861 25.4812 22.8106 25.5407 22.7522C25.6002 22.6938 25.6764 22.6555 25.7587 22.6426C25.8411 22.6296 25.9254 22.6427 25.9999 22.68L28.9999 24.28C29.0537 24.31 29.0998 24.352 29.1347 24.4028C29.1696 24.4536 29.1922 24.5117 29.2009 24.5727C29.2096 24.6337 29.2042 24.6958 29.1849 24.7543C29.1656 24.8128 29.1331 24.8661 29.0899 24.91Z" fill="#533566"/>
</svg>

<svg xmlns="http://www.w3.org/2000/svg" width="32" height="32" fill="none"><path fill="#533566" d="M24.726 14.62c.445.467.66.692.724 1.23a1.79 1.79 0 0 1-1.83 1.98l.043.44c.05.491.097.967.097 1.43a.58.58 0 0 1-.55.59l-1.68.06a.38.38 0 0 0 0 .65l1.67 1.07a.77.77 0 0 1 .34.83c-.55 2.04-2.01 3.44-5.3 3.85-.634.074-1.272.1-1.91.08a1.19 1.19 0 0 0-1.16.8l-.72 2h-10l2.18-6.89a2.76 2.76 0 0 0-.18-2.09C5.26 18.37 3.36 14.43 3.06 12a7.46 7.46 0 0 1 6.46-8.34l4.81-.6a7.47 7.47 0 0 1 8.31 6.47l.38 3a15.85 15.85 0 0 0 1.706 2.09ZM30.47 22.1v-1.94a.399.399 0 0 0-.51-.44l-3.24 1a.4.4 0 0 0 0 .76l3.24 1a.399.399 0 0 0 .51-.38ZM27.72 16l1.37 1.37A.401.401 0 0 1 29 18l-3 1.6a.4.4 0 0 1-.54-.53l1.6-3a.401.401 0 0 1 .66-.07ZM29.09 24.91l-1.37 1.37a.4.4 0 0 1-.66-.07l-1.6-3a.4.4 0 0 1 .54-.53l3 1.6a.4.4 0 0 1 .09.63Z"/></svg>
